!!!OTL: Quartett in Es für 2 Violinen, Viola und Violoncello, 1. Satz, KV 428/01
!!!system-decoration: [(s1,s2,s3,s4)]
**kern	**kern	**kern	**kern	**dynam	**kern	**kern	**kern	**kern	**dynam	**kern	**kern	**kern	**kern	**dynam	**kern	**kern	**kern	**kern	**dynam
*part4	*part4	*part4	*part4	*part4	*part3	*part3	*part3	*part3	*part3	*part2	*part2	*part2	*part2	*part2	*part1	*part1	*part1	*part1	*part1
*staff16	*staff15	*staff14	*staff13	*	*staff12	*staff11	*staff10	*staff9	*	*staff8	*staff7	*staff6	*staff5	*	*staff4	*staff3	*staff2	*staff1	*
*I"Violoncello	*	*	*	*	*I"Viola	*	*	*	*	*I"Violino II	*	*	*	*	*I"Violino I	*	*	*	*
*clefF4	*	*clefC3	*	*clefG2	*	*clefG2	*
*k[b-e-a-]	*	*k[b-e-a-]	*	*k[b-e-a-]	*	*k[b-e-a-]	*
*M4/4	*	*M4/4	*	*M4/4	*	*M4/4	*
(2E-y	.	(2E-y	.	(2e-y	.	(2e-y	.
2e-y)	.	2e-y)	.	2ee-y)	.	2ee-y)	.
=2	=2	=2	=2	=2	=2	=2	=2
(2.An	.	(2.An	.	(2.an	.	(2.an	.
4B-y)	.	4B-y)	.	4b-y)	.	4b-y)	.
=3	=3	=3	=3	=3	=3	=3	=3
(4Bn	.	(4Bn	.	(4bn	.	(4bn	.
4c	.	4c	.	4cc	.	4cc	.
4En	.	4En	.	4en	.	4en	.
4F)	.	4F)	.	4f)	.	4f)	.
=4	=4	=4	=4	=4	=4	=4	=4
(2A-	.	(2A-	.	(2a-	.	(2a-	.
4G)	.	4G)	.	4g)	.	4g)	.
4r	.	4r	.	4r	.	4r	.
=5	=5	=5	=5	=5	=5	=5	=5
4r	.	4r	.	(32cL	.	(2.f	.
.	.	.	.	32d	.	.	.
.	.	.	.	8.e-J)	.	.	.
(4C	.	(4A-y	.	8e-y'L	.	.	.
.	.	.	.	8e-y'J	.	.	.
2AA-y)	.	4c	.	2e-y	.	.	.
.	.	4F)	.	.	.	16b-yL	.
.	.	.	.	.	.	16a-y	.
.	.	.	.	.	.	16g	.
.	.	.	.	.	.	16a-yJ)	.
=6	=6	=6	=6	=6	=6	=6	=6
4AA-y]	.	4r	.	(32cL	.	(2.f	.
.	.	.	.	32d	.	.	.
.	.	.	.	8.e-yJ)	.	.	.
(4C	.	(4A-y	.	8e-yL	.	.	.
.	.	.	.	8e-yJ	.	.	.
2AA-y)	.	4c	.	[2e-y	.	.	.
.	.	4F)	.	.	.	16b-yL	.
.	.	.	.	.	.	16a-y	.
.	.	.	.	.	.	16g	.
.	.	.	.	.	.	16a-yJ)	.
=7	=7	=7	=7	=7	=7	=7	=7
4AA-y]	.	4r	.	(2.e-y_	.	(4f	.
(4A-y	.	(4f	.	.	.	4cc	.
4B-y)	.	4g	.	.	.	4b-y	.
4BB-y	.	4f)	.	4d)	.	4a-y)	.
!!LO:LB
=8	=8	=8	=8	=8	=8	=8	=8
4E-y	.	(4e-y	.	8r	.	(4g	.
.	.	.	.	8ee-y'L	.	.	.
4r	.	4g)	.	8ee-y'	.	4b-y)	.
.	.	.	.	8ee-y'J	.	.	.
2r	.	2r	.	(8.ee-yL	.	2r	.
.	.	.	.	32dd	.	.	.
.	.	.	.	32ccJ	.	.	.
.	.	.	.	8b-y)	.	.	.
.	.	.	.	8r	.	.	.
=9	=9	=9	=9	=9	=9	=9	=9
4r	.	4r	.	(32cL	.	(2.f	.
.	.	.	.	32d	.	.	.
.	.	.	.	8.e-yJ)	.	.	.
(4C	.	(4A-y	.	8e-yL	.	.	.
.	.	.	.	8e-yJ	.	.	.
2AA-y)	.	4c	.	2e-y	.	.	.
.	.	4F)	.	.	.	16b-yL	.
.	.	.	.	.	.	16a-y	.
.	.	.	.	.	.	16g	.
.	.	.	.	.	.	16a-yJ)	.
=10	=10	=10	=10	=10	=10	=10	=10
4AA-y]	.	4r	.	(32cL	.	(2.f	.
.	.	.	.	32d	.	.	.
.	.	.	.	8.e-yJ)	.	.	.
(4C	.	(4A-y	.	8e-yL	.	.	.
.	.	.	.	8e-yJ	.	.	.
2AA-y)	.	4c	.	[2e-y	.	.	.
.	.	4F)	.	.	.	16b-yL	.
.	.	.	.	.	.	16a-y	.
.	.	.	.	.	.	16g	.
.	.	.	.	.	.	16a-yJ)	.
=11	=11	=11	=11	=11	=11	=11	=11
4AA-y]	cresc.	4r	cresc.	4e-y]	cresc.	4f	cresc.
(4A-y	.	2e-y	.	(4f	.	(4cc	.
4B-y)	.	.	.	4g)	.	4b-y)	.
4BB-y	.	4B-y	.	4f 4A-y	.	4d 4A-y	.
=12	=12	=12	=12	=12	=12	=12	=12
2E-y	.	2B-y	.	2e-y 2G	.	2e-y 2G	.
2C	.	2c	.	2e-y 2G	.	2ee-y	.
=13	=13	=13	=13	=13	=13	=13	=13
(2.FF#	.	(2.c	.	[1e-y	.	(2.an	.
4GG)	.	4B-y)	.	.	.	4b-y)	.
=14	=14	=14	=14	=14	=14	=14	=14
(4GG_	.	(4d-	.	2e-y]	.	(4bn	.
4AA-y)	.	4c)	.	.	.	4cc	.
4r	.	4r	.	4r	.	4en	.
(4AAn	.	4c	.	4f	.	4f)	.
!!LO:LB
=15	=15	=15	=15	=15	=15	=15	=15
4BB-y	.	(2dn	.	(2f	.	(2a-	.
4BBn)	.	.	.	.	.	.	.
8.CL	.	4e-y)	.	4e-y)	.	4g)	.
16D	.	.	.	.	.	.	.
8.E-y	.	4r	.	4r	.	4r	.
16FJ	.	.	.	.	.	.	.
=16	=16	=16	=16	=16	=16	=16	=16
8GL	.	[1g	.	8d 8Bn	.	4g	.
8G	.	.	.	4d 4B	.	.	.
8G	.	.	.	.	.	4.gg	.
8GJ	.	.	.	4d 4B	.	.	.
8GL	.	.	.	.	.	.	.
8G	.	.	.	4d 4B	.	16aa-yL	.
.	.	.	.	.	.	16ggJ	.
.	.	.	.	.	.	(<16qbb-y	.
8G	.	.	.	.	.	8aa-yL)	.
8GJ	.	.	.	8d 8B	.	16gg	.
.	.	.	.	.	.	16ffJ	.
=17	=17	=17	=17	=17	=17	=17	=17
8CL	.	(4.g_	.	8dL (8Bn	.	(8ffL	.
8C	.	.	.	8e-yJ 8c)	.	8ee-yJ)	.
8C	.	.	.	8e-yL 8c	.	4.ee-y	.
8cJ	.	8e-y)	.	8a-yJ	.	.	.
(8cL	.	(8e-yL	.	(8a-yL	.	.	.
8B-y)	.	8d-)	.	8g)	.	(8ee-y'L	.
(8B-y	.	(8d-y	.	(8g	.	8ee-y'	.
8A-yJ)	.	8cJ)	.	8a-yJ)	.	8ee-y'J)	.
=18	=18	=18	=18	=18	=18	=18	=18
8GL	.	(4B-y	.	[1b-y	.	(8.ee-yL	.
8G	.	.	.	.	.	.	.
.	.	.	.	.	.	16ffJ)	.
8G	.	2d-	.	.	.	(2ff	.
8GJ	.	.	.	.	.	.	.
8GL	.	.	.	.	.	.	.
8G	.	.	.	.	.	.	.
8G	.	4B-y)	.	.	.	4ee-y)	.
8GJ	.	.	.	.	.	.	.
=19	=19	=19	=19	=19	=19	=19	=19
8A-yL	.	(2e-y	.	(4b-y_	.	(4dd-	.
8A-y	.	.	.	.	.	.	.
8A-y	.	.	.	(8.a-yL)	.	(8.ccL)	.
8A-yJ	.	.	.	.	.	.	.
.	.	.	.	16ccJ)	.	16ee-yJ)	.
8A-yL	.	8e-y'L)	.	(4.cc	.	(4.ee-y	.
8A-y	.	(8e-y'	.	.	.	.	.
8A-y	.	8e-y'	.	.	.	.	.
8A-yJ	.	8e-y'J)	.	16b-yL	.	16ddnL	.
.	.	.	.	16a-yJ)	.	16ccJ)	.
=20	=20	=20	=20	=20	=20	=20	=20
8E-yL	.	2e-y	.	(4a-y	.	(4cc	.
8E-y	.	.	.	.	.	.	.
8E-y	.	.	.	4g)	.	8b-yL)	.
8E-yJ	.	.	.	.	.	(8gg'J	.
8E-yL	.	2r	.	4r	.	8ff'L	.
8E-y	.	.	.	.	.	8ee-y'	.
8En	.	.	.	[4g	.	8dd-'	.
8EJ	.	.	.	.	.	8cc'J)	.
!!LO:LB
=21	=21	=21	=21	=21	=21	=21	=21
8FL	.	2c	.	(8gL_	.	(4b-y	.
8F	.	.	.	8enJ)	.	.	.
8F	.	.	.	4f	.	8a-yL)	.
8FJ	.	.	.	.	.	(8ff'J	.
8FL	.	(4A-y	.	4r	.	8ee-y'L	.
8F	.	.	.	.	.	8ddn'	.
8D	.	4F)	.	[4f	.	8cc'	.
8DJ	.	.	.	.	.	8b-y'J)	.
=22	=22	=22	=22	=22	=22	=22	=22
8E-L	.	2B-y	.	(8fL_	.	(4a-y	.
8E-y	.	.	.	8dJ)	.	.	.
8E-y	.	.	.	4e-	.	8gL)	.
8E-yJ	.	.	.	.	.	(8ee-y'J	.
8E-yL	.	(4g	.	2r	.	8dd'L	.
8E-y	.	.	.	.	.	8cc'	.
8C	.	4e-y)	.	.	.	8b-y'	.
8CJ	.	.	.	.	.	8a-y'J)	.
=23	=23	=23	=23	=23	=23	=23	=23
1AA-y	.	(2.c	.	(2.e-y	.	(16gL	.
.	.	.	.	.	.	16f	.
.	.	.	.	.	.	16a-y	.
.	.	.	.	.	.	16gJ	.
.	.	.	.	.	.	16b-yL	.
.	.	.	.	.	.	16a-y	.
.	.	.	.	.	.	16cc	.
.	.	.	.	.	.	16b-yJ)	.
.	.	.	.	.	.	(16dd-L	.
.	.	.	.	.	.	16cc	.
.	.	.	.	.	.	16b-y	.
.	.	.	.	.	.	16a-yJ	.
.	.	4A-y)	.	4c)	.	16gL	.
.	.	.	.	.	.	16f	.
.	.	.	.	.	.	16a-y	.
.	.	.	.	.	.	16fJ)	.
=24	=24	=24	=24	=24	=24	=24	=24
4.BB-y	.	(4G	.	2B-y	.	(4e-y	.
.	.	8FL)	.	.	.	8d)	.
(8g'	.	(8b-y'J	.	.	.	8r	.
8f'L	.	8an'L	.	2r	.	2r	.
8e-y'	.	8g'	.	.	.	.	.
8d'	.	8f'	.	.	.	.	.
8c'J)	.	8e-y'J)	.	.	.	.	.
=25	=25	=25	=25	=25	=25	=25	=25
8B-yL	.	1d	.	4r	.	1r	.
8B-y	.	.	.	.	.	.	.
8B-y	.	.	.	8r	.	.	.
8B-yJ	.	.	.	(8ff'	.	.	.
8B-yL	.	.	.	8ee-y'L	.	.	.
8B-y	.	.	.	8dd'	.	.	.
8B-y	.	.	.	8cc'	.	.	.
8B-yJ	.	.	.	8b-y'J)	.	.	.
=26	=26	=26	=26	=26	=26	=26	=26
8cL	.	4e-y	.	(16anL	.	4r	.
.	.	.	.	16b-y	.	.	.
8c	.	.	.	16cc	.	.	.
.	.	.	.	16b-yJ	.	.	.
8c	.	4r	.	16aL	.	8r	.
.	.	.	.	16b-y	.	.	.
8cJ	.	.	.	16cc	.	(8ccc'	.
.	.	.	.	16ddJ)	.	.	.
8cL	.	2r	.	[2ee-y	.	8bb-y'L	.
8c	.	.	.	.	.	8aan'	.
8B-y	.	.	.	.	.	8gg'	.
8B-yJ	.	.	.	.	.	8ff'J)	.
=27	=27	=27	=27	=27	=27	=27	=27
8AnL	.	4r	.	1ee-y]	.	(16eenL	.
.	.	.	.	.	.	16ff	.
8A	.	.	.	.	.	16gg	.
.	.	.	.	.	.	16ffJ)	.
8A	.	8r	.	.	.	(16eeL	.
.	.	.	.	.	.	16ff	.
8AJ	.	(8cc'	.	.	.	16gg	.
.	.	.	.	.	.	16ffJ)	.
8AL	.	8b-y'L	.	.	.	[2ff	.
8A	.	8an'	.	.	.	.	.
8A	.	8g'	.	.	.	.	.
8AJ	.	8f'J)	.	.	.	.	.
=28	=28	=28	=28	=28	=28	=28	=28
4.A-	.	(16fL	.	2dd	.	1ff_	.
.	.	16g	.	.	.	.	.
.	.	16f	.	.	.	.	.
.	.	16enJ	.	.	.	.	.
.	.	16fL	.	.	.	.	.
.	.	16g	.	.	.	.	.
(8F'	.	16a-	.	.	.	.	.
.	.	16gJ)	.	.	.	.	.
8E-y'L	.	[2a-y	.	[2b-y	.	.	.
8D'	.	.	.	.	.	.	.
8C'	.	.	.	.	.	.	.
8BB-y'J)	.	.	.	.	.	.	.
=29	=29	=29	=29	=29	=29	=29	=29
(4BB-y	.	(4a-y_	.	2b-y]	.	(4ff_	.
8E-yL)	.	8g)	.	.	.	8ee-)	.
(8D'J	.	8r	.	.	.	8r	.
8C'L	.	8r	.	8r	.	8r	.
8BBn'	.	(8f'L	.	(8g'L	.	(8dd'L	.
8AAn'	.	8f'	.	8g'	.	8dd'	.
8GG'J)	.	8f'J)	.	8g'J)	.	8dd'J)	.
=30	=30	=30	=30	=30	=30	=30	=30
(4GG	.	(4f	.	2g	.	(4dd	.
8CL)	.	8en)	.	.	.	8cc)	.
(8C'J	.	8r	.	.	.	8r	.
8BB-'L	.	8r	.	8r	.	8r	.
8AAn'	.	(8e-'L	.	(8f'L	.	(8cc'L	.
8GG'	.	8e-y'	.	8f'	.	8cc'	.
8FF'J)	.	8e-y'J)	.	8f'J)	.	8cc'J)	.
!!LO:LB
=31	=31	=31	=31	=31	=31	=31	=31
4BB-y	.	(8.dL	.	[1f	.	(16b-yL	.
.	.	.	.	.	.	16dd	.
.	.	.	.	.	.	16ff	.
.	.	16B-yJ)	.	.	.	16ddJ	.
4r	.	8d	.	.	.	8bb-yL)	.
.	.	8r	.	.	.	(8ccc'J	.
(2e-y	.	8r	.	.	.	8bb-y'L	.
.	.	(8cc'L	.	.	.	8aan'	.
.	.	8b-y'	.	.	.	8gg'	.
.	.	8an'J)	.	.	.	8ff'J)	.
=32	=32	=32	=32	=32	=32	=32	=32
2d	.	(16b-yL	.	4f]	.	(4ff	.
.	.	16cc	.	.	.	.	.
.	.	16dd	.	.	.	.	.
.	.	16b-yJ)	.	.	.	.	.
.	.	8f'L	.	4r	.	8bb-yL)	.
.	.	8f'J	.	.	.	(8ccc'J	.
2e-y	.	[2f	.	8r	.	8bb-y'L	.
.	.	.	.	(8cc'L	.	8aan'	.
.	.	.	.	8b-y'	.	8gg'	.
.	.	.	.	8an'J)	.	8ff'J)	.
=33	=33	=33	=33	=33	=33	=33	=33
2d	.	4f]	.	(16b-yL	.	(4ff	.
.	.	.	.	16cc	.	.	.
.	.	.	.	16dd	.	.	.
.	.	.	.	16b-yJ)	.	.	.
.	.	4r	.	8ff'L	.	8bb-yL)	.
.	.	.	.	8ff'J	.	(8ccc'J	.
2e-y)	.	8r	.	[2ff	.	8bb-y'L	.
.	.	(8cc'L	.	.	.	8aan'	.
.	.	8b-y'	.	.	.	8gg'	.
.	.	8an'J)	.	.	.	8ff'J)	.
=34	=34	=34	=34	=34	=34	=34	=34
.	.	.	.	.	.	(<8qff	.
4d	.	4b-y	.	4ff]	.	1bb-y)	.
4r	.	4r	.	8r	.	.	.
.	.	.	.	(8ff'	.	.	.
2r	.	2r	.	8ee-y'L	.	.	.
.	.	.	.	8dd'	.	.	.
.	.	.	.	8cc'	.	.	.
.	.	.	.	8b-y'J)	.	.	.
=35	=35	=35	=35	=35	=35	=35	=35
1r	.	4r	.	(1a-	cre	1bb-y_	cre
.	.	8r	.	.	.	.	.
.	.	(8f'	.	.	.	.	.
.	.	8e-y'L	.	.	.	.	.
.	.	8d'	.	.	.	.	.
.	.	8c'	.	.	.	.	.
.	.	8B-y'J)	.	.	.	.	.
!!LO:LB
=36	=36	=36	=36	=36	=36	=36	=36
4r	cre	1e-y	cre	1g)	scen	1bb-y_	scen
8r	.	.	.	.	.	.	.
(8B-y'	.	.	.	.	.	.	.
8A-'L	.	.	.	.	.	.	.
8G'	.	.	.	.	.	.	.
8F'	.	.	.	.	.	.	.
8E-y'J)	.	.	.	.	.	.	.
=37	=37	=37	=37	=37	=37	=37	=37
1G-	scendo	(4.d-	scendo	[2en	do	4.bb-y]	do
.	.	8c	.	.	.	(8aan'	.
.	.	8d-yL	.	(4.e_	.	8bb-y'L	.
.	.	8An	.	.	.	8ccc'	.
.	.	8B-y	.	.	.	8ddd-'	.
.	.	8cJ)	.	8b-y)	.	8een'J)	.
=38	=38	=38	=38	=38	=38	=38	=38
8FL	.	8dnL	.	8b-yL	.	4ff	.
8F	.	8d	.	8b-y	.	.	.
8F	.	8d	.	8b-y	.	2fff	.
8FJ	.	8dJ	.	8b-yJ	.	.	.
8FL	.	8dL	.	8b-yL	.	.	.
8F	.	8d	.	8b-y	.	.	.
.	.	.	.	.	.	(<16qeee	.
8F	.	8d	.	8b-y	.	(8dddnL)	.
8FJ	.	8dJ	.	8b-yJ	.	16ccc	.
.	.	.	.	.	.	16bb-yJ)	.
=39	=39	=39	=39	=39	=39	=39	=39
8FL	.	8e-yL	.	8anL	.	1cccT	.
8F	.	8e-y	.	8a	.	.	.
8F	.	8e-y	.	8a	.	.	.
8FJ	.	8e-yJ	.	8aJ	.	.	.
8FL	.	8e-yL	.	8aL	.	.	.
8F	.	8e-y	.	8a	.	.	.
8F	.	8e-y	.	8a	.	.	.
8FJ	.	8e-yJ	.	8aJ	.	.	.
.	.	.	.	.	.	(<32qbb-yL	.
.	.	.	.	.	.	32qcccJ)	.
=40	=40	=40	=40	=40	=40	=40	=40
4BB-y	.	4d	.	4b-y	.	4bb-y	.
4r	.	4r	.	4r	.	4r	.
2r	.	2r	.	2r	.	(8b-yL	.
.	.	.	.	.	.	24cc	.
.	.	.	.	.	.	24b-y	.
.	.	.	.	.	.	24anJ	.
.	.	.	.	.	.	8b-yL)	.
.	.	.	.	.	.	8ccJ	.
=41	=41	=41	=41	=41	=41	=41	=41
2r	.	2r	.	2r	.	(4dd'	.
.	.	.	.	.	.	4dd'	.
(2D	.	(2c	.	(2f#	.	4dd'	.
.	.	.	.	.	.	4dd')	.
!!LO:LB
=42	=42	=42	=42	=42	=42	=42	=42
4GG)	.	4B-y)	.	4g)	.	(>16ddL	.
.	.	.	.	.	.	16ff#	.
.	.	.	.	.	.	16gg	.
.	.	.	.	.	.	16ee-yJ)	.
4r	.	4r	.	4r	.	4dd	.
2r	.	2r	.	2r	.	(>4b-y	.
.	.	.	.	.	.	(<32qccL	.
.	.	.	.	.	.	32qb-y	.
.	.	.	.	.	.	32qan	.
.	.	.	.	.	.	32qb-yJ)	.
.	.	.	.	.	.	8ccL)	.
.	.	.	.	.	.	8ddJ	.
=43	=43	=43	=43	=43	=43	=43	=43
4..AAn	.	4..An	.	2fn	.	4..cc	.
16BB-y	.	16B-y	.	.	.	16dd	.
4C	.	4c	.	8.anL	.	8.ccL	.
.	.	.	.	16g	.	16b-y	.
4C	.	4c	.	8.f	.	8.a	.
.	.	.	.	16enJ	.	16gJ	.
=44	=44	=44	=44	=44	=44	=44	=44
4FF	.	4c	.	(8enL	.	(8gL	.
.	.	.	.	8fJ)	.	8anJ)	.
4r	.	4r	.	4An	.	4f	.
2r	.	2r	.	2r	.	8.fL	.
.	.	.	.	.	.	16g	.
.	.	.	.	.	.	8.a	.
.	.	.	.	.	.	16bnJ	.
=45	=45	=45	=45	=45	=45	=45	=45
4r	.	[1g [1G	.	(8e-L	.	4cc	.
.	.	.	.	8c	.	.	.
(4C	.	.	.	8e-y	.	2cc	.
.	.	.	.	8cJ	.	.	.
4E-	.	.	.	8e-yL	.	.	.
.	.	.	.	8c	.	.	.
4G)	.	.	.	8f	.	(8.ddL	.
.	.	.	.	8dJ)	.	.	.
.	.	.	.	.	.	16bnJ)	.
=46	=46	=46	=46	=46	=46	=46	=46
(4.c	.	4.g] 4.G]	.	(8e-yL	.	(4cc	.
.	.	.	.	8g)	.	.	.
.	.	.	.	8cc	.	2ee-y)	.
8B-y)	.	(8g-	.	8ccJ	.	.	.
4An	.	4f)	.	4cc	.	.	.
4r	.	4r	.	4r	.	(12ee-yL	.
.	.	.	.	.	.	12gg	.
.	.	.	.	.	.	12ee-yJ)	.
=47	=47	=47	=47	=47	=47	=47	=47
4B-y	.	4f	.	4b-y	.	4dd	.
4r	.	4r	.	4r	.	(12ddL	.
.	.	.	.	.	.	12ff	.
.	.	.	.	.	.	12ddJ)	.
4F	.	4e-y	.	4an	.	4cc	.
4r	.	4r	.	4r	.	(12ccL	.
.	.	.	.	.	.	12ee-y	.
.	.	.	.	.	.	12ccJ)	.
=48	=48	=48	=48	=48	=48	=48	=48
4BB-y	.	4d	.	4b-y	.	(4b-y	.
4r	.	4r	.	4r	.	8bb-y)	.
.	.	.	.	.	.	8r	.
2r	.	(8B-yL	.	2r	.	2r	.
.	.	24c	.	.	.	.	.
.	.	24B-y	.	.	.	.	.
.	.	24AnJ	.	.	.	.	.
.	.	8B-yL)	.	.	.	.	.
.	.	8cJ	.	.	.	.	.
=49	=49	=49	=49	=49	=49	=49	=49
2r	.	(4d'	.	2r	.	2r	.
.	.	4d'	.	.	.	.	.
(2D	.	4d'	.	(2c	.	(2f#	.
.	.	4d')	.	.	.	.	.
=50	=50	=50	=50	=50	=50	=50	=50
4GG)	.	(>16dL	.	4B-y)	.	4g)	.
.	.	16f#	.	.	.	.	.
.	.	16g	.	.	.	.	.
.	.	16e-yJ)	.	.	.	.	.
4r	.	4d	.	4r	.	4r	.
2r	.	(>4B-y	.	2r	.	2r	.
.	.	(<32qcL	.	.	.	.	.
.	.	32qB-y	.	.	.	.	.
.	.	32qAn	.	.	.	.	.
.	.	32qB-yJ)	.	.	.	.	.
.	.	8cL)	.	.	.	.	.
.	.	8dJ	.	.	.	.	.
=51	=51	=51	=51	=51	=51	=51	=51
4..AAn	.	4..c	.	2f	.	4..fn	.
16BB-y	.	16d	.	.	.	16b-y	.
4C	.	8.cL	.	4c	.	8.anL	.
.	.	16B-y	.	.	.	16g	.
4C	.	8.An	.	4c	.	8.f	.
.	.	16GJ	.	.	.	16enJ	.
=52	=52	=52	=52	=52	=52	=52	=52
4FF	.	(8GL	.	4c	.	(8enL	.
.	.	8AnJ)	.	.	.	8fJ)	.
4r	.	4F	.	4r	.	4r	.
2r	.	8.FL	.	2r	.	2r	.
.	.	16G	.	.	.	.	.
.	.	8.A	.	.	.	.	.
.	.	16BnJ	.	.	.	.	.
=53	=53	=53	=53	=53	=53	=53	=53
8.CL	.	4c	.	1r	.	1r	.
16D	.	.	.	.	.	.	.
8.E-	.	2c	.	.	.	.	.
16FJ	.	.	.	.	.	.	.
(4.G	.	.	.	.	.	.	.
.	.	(8.dL	.	.	.	.	.
8F)	.	.	.	.	.	.	.
.	.	16BnJ)	.	.	.	.	.
!!LO:LB
=54	=54	=54	=54	=54	=54	=54	=54
8.E-yL	.	(4c	.	1r	.	1r	.
16D	.	.	.	.	.	.	.
8.C	.	2e-y)	.	.	.	.	.
16BB-yJ	.	.	.	.	.	.	.
4AAn	.	.	.	.	.	.	.
4r	.	(12f#L	.	.	.	.	.
.	.	12g	.	.	.	.	.
.	.	12e-yJ)	.	.	.	.	.
=55	=55	=55	=55	=55	=55	=55	=55
4BB-y	.	4d	.	1r	.	1r	.
4r	.	(12enL	.	.	.	.	.
.	.	12fn	.	.	.	.	.
.	.	12dJ)	.	.	.	.	.
4F	.	4c	.	.	.	.	.
4r	.	(12dL	.	.	.	.	.
.	.	12e-	.	.	.	.	.
.	.	12cJ)	.	.	.	.	.
=56	=56	=56	=56	=56	=56	=56	=56
8BB-yL	.	4B-y	.	(2b-y	.	1r	.
8BB-y	.	.	.	.	.	.	.
8BB-y	.	4r	.	.	.	.	.
8BB-yJ	.	.	.	.	.	.	.
8BB-yL	.	2r	.	2an	.	.	.
8BB-y	.	.	.	.	.	.	.
8BB-y	.	.	.	.	.	.	.
8BB-yJ	.	.	.	.	.	.	.
=57	=57	=57	=57	=57	=57	=57	=57
8BB-yL	.	1r	.	2g	.	(2ee-y	.
8BB-y	.	.	.	.	.	.	.
8BB-y	.	.	.	.	.	.	.
8BB-yJ	.	.	.	.	.	.	.
8BB-yL	.	.	.	2f)	.	2dd)	.
8BB-y	.	.	.	.	.	.	.
8BB-y	.	.	.	.	.	.	.
8BB-yJ	.	.	.	.	.	.	.
=58	=58	=58	=58	=58	=58	=58	=58
8BB-yL	.	(2g	.	(2en	.	[2cc	.
8BB-y	.	.	.	.	.	.	.
8BB-y	.	.	.	.	.	.	.
8BB-yJ	.	.	.	.	.	.	.
8BB-yL	.	2an)	.	2e-)	.	(8ccL_	.
8BB-y	.	.	.	.	.	16dd	.
.	.	.	.	.	.	16ee-yJ	.
8BB-y	.	.	.	.	.	8ffL)	.
8BB-yJ	.	.	.	.	.	8ffJ	.
=59	=59	=59	=59	=59	=59	=59	=59
8BB-yL	.	(2b-y	.	4d	.	4b-y	.
8BB-y	.	.	.	.	.	.	.
8BB-y	.	.	.	4r	.	4r	.
8BB-yJ	.	.	.	.	.	.	.
8BB-yL	.	2a-	.	2r	.	2r	.
8BB-y	.	.	.	.	.	.	.
8BB-y	.	.	.	.	.	.	.
8BB-yJ	.	.	.	.	.	.	.
!!LO:LB
=60	=60	=60	=60	=60	=60	=60	=60
8BB-yL	.	2g-	.	(2ee-y	.	1r	.
8BB-y	.	.	.	.	.	.	.
8BB-y	.	.	.	.	.	.	.
8BB-yJ	.	.	.	.	.	.	.
8BB-yL	.	2f)	.	2dd-)	.	.	.
8BB-y	.	.	.	.	.	.	.
8BB-y	.	.	.	.	.	.	.
8BB-yJ	.	.	.	.	.	.	.
=61	=61	=61	=61	=61	=61	=61	=61
8BB-yL	.	(2e-y	.	1cc-	.	(2gg-	.
8BB-y	.	.	.	.	.	.	.
8BB-y	.	.	.	.	.	.	.
8BB-yJ	.	.	.	.	.	.	.
8AA-L	.	2d)	.	.	.	2ff)	.
8AA-y	.	.	.	.	.	.	.
8AA-y	.	.	.	.	.	.	.
8AA-yJ	.	.	.	.	.	.	.
=62	=62	=62	=62	=62	=62	=62	=62
8GGL	.	(2e-y	.	(2b-y	.	(2bb-y	.
8GG	.	.	.	.	.	.	.
8GG	.	.	.	.	.	.	.
8GGJ	.	.	.	.	.	.	.
8GG-L	.	2en)	.	2bb-y)	.	2ddd-)	.
8GG-y	.	.	.	.	.	.	.
8GG-y	.	.	.	.	.	.	.
8GG-yJ	.	.	.	.	.	.	.
=63	=63	=63	=63	=63	=63	=63	=63
4FF	.	4f	.	4dddn	.	4fff	.
4r	.	4r	.	4r	.	4r	.
(2F	.	(2c	.	(2e-y	.	(2an	.
=64	=64	=64	=64	=64	=64	=64	=64
4BB-y)	.	4B-y)	.	4d)	.	16b-yL)	.
.	.	.	.	.	.	16B-y'	.
.	.	.	.	.	.	16c'	.
.	.	.	.	.	.	16d'J	.
4r	.	4r	.	4r	.	16e-y'L	.
.	.	.	.	.	.	16f'	.
.	.	.	.	.	.	16g'	.
.	.	.	.	.	.	16an'J	.
2r	.	2r	.	2r	.	16b-yL	.
.	.	.	.	.	.	16cc	.
.	.	.	.	.	.	16dd	.
.	.	.	.	.	.	16ee-yJ	.
.	.	.	.	.	.	16ffL	.
.	.	.	.	.	.	16gg	.
.	.	.	.	.	.	16aan	.
.	.	.	.	.	.	16bb-yJ	.
!!LO:LB
=65	=65	=65	=65	=65	=65	=65	=65
4e-y	.	(16fL	.	(16anL	.	(8ggL	.
.	.	16g	.	16b-y	.	.	.
.	.	16an	.	16cc	.	8ffJ)	.
.	.	16gJ)	.	16b-yJ)	.	.	.
8.cL	.	(16aL	.	(16ccL	.	(4.ff	.
.	.	16bn	.	16dd	.	.	.
.	.	16cc	.	16ee-y	.	.	.
16AnJ	.	16bJ)	.	16ddJ)	.	.	.
4F	.	(16ccL	.	(16ee-yL	.	.	.
.	.	16b-	.	16dd	.	.	.
.	.	16a	.	16cc	.	8ee-yL	.
.	.	16gJ	.	16b-yJ	.	.	.
4FF	.	16fL	.	16aL	.	8cc	.
.	.	16e-y	.	16g	.	.	.
.	.	16d	.	16f	.	8anJ)	.
.	.	16cJ)	.	16e-yJ)	.	.	.
=66	=66	=66	=66	=66	=66	=66	=66
4BB-y	.	4B-y	.	16d'L	.	16b-y'L	.
.	.	.	.	16B-y'	.	16B-y'	.
.	.	.	.	16An'	.	16c'	.
.	.	.	.	16B-y'J	.	16d'J	.
4F	.	2f	.	16cL	.	16e-yL	.
.	.	.	.	16d	.	16f	.
.	.	.	.	16e-y	.	16g	.
.	.	.	.	16cJ	.	16anJ	.
4D	.	.	.	16dL	.	16b-yL	.
.	.	.	.	16A	.	16cc	.
.	.	.	.	16B-y	.	16dd	.
.	.	.	.	16cJ	.	16ee-yJ	.
4BB-y	.	[4f	.	16dL	.	16ffL	.
.	.	.	.	16e-y	.	16gg	.
.	.	.	.	16f	.	16aan	.
.	.	.	.	16gJ	.	16bb-yJ	.
=67	=67	=67	=67	=67	=67	=67	=67
4E-y	.	(16fL_	.	(16anL	.	(8ggL	.
.	.	16g	.	16b-y	.	.	.
.	.	16an	.	16cc	.	8ffJ)	.
.	.	16gJ)	.	16b-yJ)	.	.	.
8.CL	.	(16aL	.	(16ccL	.	(4.ff	.
.	.	16bn	.	16dd	.	.	.
.	.	16cc	.	16ee-y	.	.	.
16AAnJ	.	16bJ)	.	16ddJ)	.	.	.
4FF	.	(16ccL	.	(16ee-yL	.	.	.
.	.	16b-	.	16dd	.	.	.
.	.	16a	.	16cc	.	8ee-yL	.
.	.	16gJ	.	16b-yJ	.	.	.
4F	.	16fL	.	16aL	.	8cc	.
.	.	16e-y	.	16g	.	.	.
.	.	16d	.	16f	.	8anJ)	.
.	.	16cJ)	.	16e-yJ)	.	.	.
=68	=68	=68	=68	=68	=68	=68	=68
4BB-y	.	4B-y	.	4d	.	4b-y	.
4B-y	.	4b-y	.	4dd 4f 4B-y	.	4bb-y 4b-y 4d	.
4BB-y	.	4B-y	.	4B-y	.	4B-y	.
4r	.	4r	.	4r	.	4r	.
=69:|!	=69:|!	=69:|!	=69:|!	=69:|!	=69:|!	=69:|!	=69:|!
1r	.	1r	.	(2B-y	.	(2b-y	.
.	.	.	.	2b-y)	.	2bb-y)	.
=70	=70	=70	=70	=70	=70	=70	=70
1r	.	1r	.	(2.en	.	(2.een	.
.	.	.	.	4f)	.	4ff)	.
=71	=71	=71	=71	=71	=71	=71	=71
(2EE-y	.	(2E-y	.	(4f#	.	(4ff#	.
.	.	.	.	4g	.	4gg	.
2E-y)	.	2e-y)	.	4Bn	.	4bn	.
.	.	.	.	4c)	.	4cc)	.
=72	=72	=72	=72	=72	=72	=72	=72
(2.AAn	.	(2.An	.	(2.e-	.	(2.ee-	.
4BB-y)	.	4B-y)	.	4d)	.	4dd)	.
=73	=73	=73	=73	=73	=73	=73	=73
(4BBn	.	(4Bn	.	8r	.	8r	.
.	.	.	.	(4f	.	(4a-	.
4C	.	4c	.	.	.	.	.
.	.	.	.	8en)	.	8g)	.
4EEn	.	4En	.	8r	.	8r	.
.	.	.	.	(4B-y	.	(4dd-	.
4FF)	.	4F)	.	.	.	.	.
.	.	.	.	8An)	.	8cc)	.
=74	=74	=74	=74	=74	=74	=74	=74
*	*	*	*	*^	*	*	*
(2.AA-	.	(2.A-	.	1d	(2B-y	.	8r	.
.	.	.	.	.	.	.	4f	.
.	.	.	.	.	.	.	4f	.
.	.	.	.	.	2Bn)	.	.	.
.	.	.	.	.	.	.	4f	.
4GG)	.	4G)	.	.	.	.	.	.
.	.	.	.	.	.	.	8f	.
*	*	*	*	*v	*v	*	*	*
=75	=75	=75	=75	=75	=75	=75	=75
8CL	.	8G	.	8cL	.	8e-yL	.
.	.	.	.	(<16qd	.	.	.
.	.	.	.	.	.	(<16qf	.
8C	.	4G	.	(16c)	.	(16e-y)	.
.	.	.	.	16BnJ	.	16dJ	.
8C	.	.	.	8cL)	.	8e-yL)	.
8CJ	.	4G	.	8dJ	.	8fJ	.
8CL	.	.	.	4e-y	.	4g	.
8C	.	4G	.	.	.	.	.
8C	.	.	.	4r	.	4r	.
8CJ	.	[8G	.	.	.	.	.
=76	=76	=76	=76	=76	=76	=76	=76
8CL	.	8G]	.	8ccL	.	8ee-yL	.
.	.	.	.	(<16qdd	.	.	.
.	.	.	.	.	.	(<16qff	.
8C	.	4G	.	(16cc)	.	(16ee-y)	.
.	.	.	.	16bnJ	.	16ddJ	.
8C	.	.	.	8ccL)	.	8ee-yL)	.
8CJ	.	4G	.	8ddJ	.	8ffJ	.
8CL	.	.	.	4ee-y	.	4gg	.
8C	.	4G	.	.	.	.	.
8C	.	.	.	4r	.	4r	.
8CJ	.	8G	.	.	.	.	.
!!LO:LB
=77	=77	=77	=77	=77	=77	=77	=77
[1C	.	[1F	.	[1d [1Bn	.	12r	.
.	.	.	.	.	.	12A-L	.
.	.	.	.	.	.	12BnJ	.
.	.	.	.	.	.	12dL	.
.	.	.	.	.	.	12f	.
.	.	.	.	.	.	12aJ	.
.	.	.	.	.	.	12bnL	.
.	.	.	.	.	.	12dd	.
.	.	.	.	.	.	12ffJ	.
.	.	.	.	.	.	(12aa-L	.
.	.	.	.	.	.	12ff)	.
.	.	.	.	.	.	12ddJ	.
=78	=78	=78	=78	=78	=78	=78	=78
1C]	.	1F]	.	1d] 1B]	.	(12ffL	.
.	.	.	.	.	.	12dd)	.
.	.	.	.	.	.	12bnJ	.
.	.	.	.	.	.	(12a-yL	.
.	.	.	.	.	.	12f)	.
.	.	.	.	.	.	12dJ	.
.	.	.	.	.	.	(12fL	.
.	.	.	.	.	.	12d)	.
.	.	.	.	.	.	12BnJ	.
.	.	.	.	.	.	(12A-yL	.
.	.	.	.	.	.	12G)	.
.	.	.	.	.	.	12fJ	.
=79	=79	=79	=79	=79	=79	=79	=79
8CL	.	8G	.	8cL	.	8e-yL	.
.	.	.	.	(<16qd	.	.	.
.	.	.	.	.	.	(<16qf	.
8C	.	4G	.	(16c)	.	(16e-y)	.
.	.	.	.	16BnJ	.	16dJ	.
8C	.	.	.	8cL)	.	8e-yL)	.
8CJ	.	4G	.	8dJ	.	8fJ	.
8CL	.	.	.	4e-y	.	4g	.
8C	.	4G	.	.	.	.	.
8C	.	.	.	4r	.	4r	.
8CJ	.	[8G	.	.	.	.	.
=80	=80	=80	=80	=80	=80	=80	=80
8CL	.	8G]	.	8ccL	.	8ee-yL	.
.	.	.	.	(<16qdd	.	.	.
.	.	.	.	.	.	(<16qff	.
8C	.	4G	.	(16cc)	.	(16ee-y)	.
.	.	.	.	16bnJ	.	16ddJ	.
8C	.	.	.	8ccL)	.	8ee-yL)	.
8CJ	.	4G	.	8ddJ	.	8ffJ	.
8CL	.	.	.	4ee-y	.	4gg	.
8C	.	4G	.	.	.	.	.
8C	.	.	.	4r	.	4r	.
8CJ	.	8G	.	.	.	.	.
!!LO:LB
=81	=81	=81	=81	=81	=81	=81	=81
[1C	.	[1B-	.	[1en [1G	.	12r	.
.	.	.	.	.	.	12GL	.
.	.	.	.	.	.	12B-J	.
.	.	.	.	.	.	12enL	.
.	.	.	.	.	.	12g	.
.	.	.	.	.	.	12bJ	.
.	.	.	.	.	.	12eeL	.
.	.	.	.	.	.	12gg	.
.	.	.	.	.	.	12bbJ	.
.	.	.	.	.	.	(12ddd-L	.
.	.	.	.	.	.	12bb-y)	.
.	.	.	.	.	.	12ggJ	.
=82	=82	=82	=82	=82	=82	=82	=82
1C]	.	1B-y]	.	1e] 1G]	.	(12bb-yL	.
.	.	.	.	.	.	12gg)	.
.	.	.	.	.	.	12eenJ	.
.	.	.	.	.	.	(12dd-L	.
.	.	.	.	.	.	12b-y)	.
.	.	.	.	.	.	12gJ	.
.	.	.	.	.	.	(12b-yL	.
.	.	.	.	.	.	12g)	.
.	.	.	.	.	.	12enJ	.
.	.	.	.	.	.	(12d-L	.
.	.	.	.	.	.	12c)	.
.	.	.	.	.	.	12b-yJ	.
=83	=83	=83	=83	=83	=83	=83	=83
8FL	.	8cL	.	8fL	.	8a-yL	.
.	.	.	.	(<16qg	.	.	.
.	.	.	.	.	.	(<16qb-y	.
8F	.	8c	.	(16f)	.	(16a-y)	.
.	.	.	.	16enJ	.	16gJ	.
8F	.	8c	.	8fL)	.	8a-yL)	.
8FJ	.	8cJ	.	8gJ	.	8b-yJ	.
8FL	.	8cL	.	4a-y	.	4cc	.
8F	.	8c	.	.	.	.	.
8F	.	8c	.	4r	.	4r	.
8FJ	.	8cJ	.	.	.	.	.
=84	=84	=84	=84	=84	=84	=84	=84
8FL	.	8cL	.	8ffL	.	8aa-yL	.
.	.	.	.	(<16qgg	.	.	.
.	.	.	.	.	.	(<16qbb-y	.
8F	.	8c	.	(16ff)	.	(16aa-y)	.
.	.	.	.	16eenJ	.	16ggJ	.
8F	.	8c	.	8ffL)	.	8aa-yL)	.
8FJ	.	8cJ	.	8ggJ	.	8bb-yJ	.
8FL	.	8cL	.	4aa-y	.	4ccc	.
8F	.	8c	.	.	.	.	.
8F	.	8c	.	4r	.	4r	.
8FJ	.	8cJ	.	.	.	.	.
!!LO:LB
=85	=85	=85	=85	=85	=85	=85	=85
[1E-	.	12r	.	8fL	.	8anL	.
.	.	12CL	.	.	.	.	.
.	.	.	.	(<16qg	.	.	.
.	.	.	.	.	.	(<16qb-y	.
.	.	.	.	(16f)	.	(16a)	.
.	.	12FJ	.	.	.	.	.
.	.	.	.	16enJ	.	16gJ	.
.	.	12AnL	.	8fL)	.	8aL)	.
.	.	12c	.	.	.	.	.
.	.	.	.	8gJ	.	8b-yJ	.
.	.	12fJ	.	.	.	.	.
.	.	12anL	.	4an	.	4cc	.
.	.	12cc	.	.	.	.	.
.	.	12aJ	.	.	.	.	.
.	.	(12ffL	.	4r	.	4r	.
.	.	12cc)	.	.	.	.	.
.	.	12aJ	.	.	.	.	.
=86	=86	=86	=86	=86	=86	=86	=86
1E-y]	.	(12ccL	.	8ffL	.	8aanL	.
.	.	12an)	.	.	.	.	.
.	.	.	.	(<16qgg	.	.	.
.	.	.	.	.	.	(<16qbb-y	.
.	.	.	.	(16ff)	.	(16aa)	.
.	.	12fJ	.	.	.	.	.
.	.	.	.	16eenJ	.	16ggJ	.
.	.	(12aL	.	8ffL)	.	8aaL)	.
.	.	12f)	.	.	.	.	.
.	.	.	.	8ggJ	.	8bb-yJ	.
.	.	12cJ	.	.	.	.	.
.	.	(12fL	.	4aan	.	4ccc	.
.	.	12c)	.	.	.	.	.
.	.	12AnJ	.	.	.	.	.
.	.	(12cL	.	4r	.	4r	.
.	.	12A)	.	.	.	.	.
.	.	12FJ	.	.	.	.	.
=87	=87	=87	=87	=87	=87	=87	=87
[1D	.	8F#L	.	8AnL	.	12r	.
.	.	.	.	.	.	12AnL	.
.	.	(<16qG	.	.	.	.	.
.	.	.	.	(<16qB-y	.	.	.
.	.	(16F#y)	.	(16A)	.	.	.
.	.	.	.	.	.	12cJ	.
.	.	16EnJ	.	16GJ	.	.	.
.	.	8F#yL)	.	8AL)	.	12f#L	.
.	.	.	.	.	.	12an	.
.	.	8GJ	.	8B-yJ	.	.	.
.	.	.	.	.	.	12ccJ	.
.	.	4An	.	4c	.	12ff#L	.
.	.	.	.	.	.	12aan	.
.	.	.	.	.	.	12ff#yJ	.
.	.	4r	.	4r	.	(12cccL	.
.	.	.	.	.	.	12aa)	.
.	.	.	.	.	.	12ff#yJ	.
=88	=88	=88	=88	=88	=88	=88	=88
1D]	.	8f#L	.	8anL	.	(12aanL	.
.	.	.	.	.	.	12ff#)	.
.	.	(<16qg	.	.	.	.	.
.	.	.	.	(<16qb-y	.	.	.
.	.	(16f#y)	.	(16a)	.	.	.
.	.	.	.	.	.	12ccJ	.
.	.	16enJ	.	16gJ	.	.	.
.	.	8f#yL)	.	8aL)	.	(12ff#yL	.
.	.	.	.	.	.	12cc)	.
.	.	8gJ	.	8b-yJ	.	.	.
.	.	.	.	.	.	12aJ	.
.	.	4an	.	4cc	.	(12ccL	.
.	.	.	.	.	.	12a)	.
.	.	.	.	.	.	12f#J	.
.	.	4r	.	4r	.	(12eL	.
.	.	.	.	.	.	12d)	.
.	.	.	.	.	.	12ccJ	.
=89	=89	=89	=89	=89	=89	=89	=89
[1GG	.	8GL	.	12r	.	8b-yL	.
.	.	.	.	12BL	.	.	.
.	.	(<16qAn	.	.	.	.	.
.	.	.	.	.	.	(<16qcc	.
.	.	(16G)	.	.	.	(16b-y)	.
.	.	.	.	12dJ	.	.	.
.	.	16F#J	.	.	.	16anJ	.
.	.	8GL)	.	12gL	.	8b-yL)	.
.	.	.	.	12b-y	.	.	.
.	.	8AnJ	.	.	.	8ccJ	.
.	.	.	.	12ddJ	.	.	.
.	.	4B-y	.	12ggL	.	4dd	.
.	.	.	.	12bb-y	.	.	.
.	.	.	.	12ggJ	.	.	.
.	.	4r	.	(12dddL	.	4r	.
.	.	.	.	12bb-y)	.	.	.
.	.	.	.	12ggJ	.	.	.
=90	=90	=90	=90	=90	=90	=90	=90
1GG]	.	8gL	.	(12bb-yL	.	8bb-yL	.
.	.	.	.	12gg)	.	.	.
.	.	(<16qan	.	.	.	.	.
.	.	.	.	.	.	(<16qccc	.
.	.	(16g)	.	.	.	(16bb-y)	.
.	.	.	.	12ddJ	.	.	.
.	.	16f#J	.	.	.	16aanJ	.
.	.	8gL)	.	(12ggL	.	8bb-yL)	.
.	.	.	.	12dd)	.	.	.
.	.	8anJ	.	.	.	8cccJ	.
.	.	.	.	12b-yJ	.	.	.
.	.	4b-y	.	(12ddL	.	4ddd	.
.	.	.	.	12b-y)	.	.	.
.	.	.	.	12gJ	.	.	.
.	.	4r	.	(12b-yL	.	4r	.
.	.	.	.	12g)	.	.	.
.	.	.	.	12dJ	.	.	.
=91	=91	=91	=91	=91	=91	=91	=91
12r	.	[1E-y	.	8B-yL	.	8gL	.
12EE-yL	.	.	.	.	.	.	.
.	.	.	.	(<16qc	.	.	.
.	.	.	.	.	.	(<16qan	.
.	.	.	.	(16B-y)	.	(16g)	.
12GGJ	.	.	.	.	.	.	.
.	.	.	.	16AnJ	.	16f#J	.
12BB-yL	.	.	.	8B-yL)	.	8gL)	.
12E-y	.	.	.	.	.	.	.
.	.	.	.	8AJ	.	8anJ	.
12GJ	.	.	.	.	.	.	.
12B-yL	.	.	.	4G	.	4b-y	.
12G	.	.	.	.	.	.	.
12B-yJ	.	.	.	.	.	.	.
(12e-yL	.	.	.	4r	.	4r	.
12B-y)	.	.	.	.	.	.	.
12GJ	.	.	.	.	.	.	.
=92	=92	=92	=92	=92	=92	=92	=92
(12B-yL	.	1E-y]	.	8b-yL	.	8ggL	.
12G)	.	.	.	.	.	.	.
.	.	.	.	(<16qcc	.	.	.
.	.	.	.	.	.	(<16qaan	.
.	.	.	.	(16b-y)	.	(16gg)	.
12E-yJ	.	.	.	.	.	.	.
.	.	.	.	16anJ	.	16ff#J	.
(12GL	.	.	.	8b-yL)	.	8ggL)	.
12E-y)	.	.	.	.	.	.	.
.	.	.	.	8aJ	.	8aanJ	.
12BB-yJ	.	.	.	.	.	.	.
(12E-yL	.	.	.	4g	.	4bb-y	.
12BB-y)	.	.	.	.	.	.	.
12GGJ	.	.	.	.	.	.	.
(12BB-yL	.	.	.	4r	.	4r	.
12GG)	.	.	.	.	.	.	.
12EE-yJ	.	.	.	.	.	.	.
!!LO:LB
=93	=93	=93	=93	=93	=93	=93	=93
4CC#	.	1r	.	4r	.	4r	.
4r	.	.	.	(4gg'	.	(4bb-y'	.
2r	.	.	.	4gg'	.	4bb-y'	.
.	.	.	.	4gg')	.	4bb-y')	.
=94	=94	=94	=94	=94	=94	=94	=94
4r	.	4r	.	4gg	.	4bb-y	.
(4C#'	.	(4c#'	.	4r	.	4r	.
4C#y'	.	4c#y'	.	2r	.	2r	.
4C#y')	.	4c#y')	.	.	.	.	.
=95	=95	=95	=95	=95	=95	=95	=95
4D	.	4d	.	1r	.	4r	.
4r	.	4r	.	.	.	(4dd'	.
2r	.	2r	.	.	.	4dd'	.
.	.	.	.	.	.	4dd')	.
=96	=96	=96	=96	=96	=96	=96	=96
2r	.	2r	.	2r	.	4dd	.
.	.	.	.	.	.	4r	.
(2D	.	(2cn	.	(2f# (2An	.	2r	.
=97	=97	=97	=97	=97	=97	=97	=97
4GG)	.	4B-y)	.	4g)) 4G	.	4r	.
4r	.	4r	.	4r	.	(4dd	.
2r	.	2r	.	2r	.	4dd	.
.	.	.	.	.	.	4dd-	.
=98	=98	=98	=98	=98	=98	=98	=98
2r	.	2r	.	2r	.	4cc)	.
.	.	.	.	.	.	4r	.
(2C	.	(2G	.	(2en (2B-y	.	2r	.
=99	=99	=99	=99	=99	=99	=99	=99
4FF)	.	4F)	.	4f)) 4An	.	4r	.
4r	.	4r	.	4r	.	(4cc	.
2r	.	2r	.	2r	.	4cc	.
.	.	.	.	.	.	4cc-	.
=100	=100	=100	=100	=100	=100	=100	=100
2r	.	2r	.	2r	.	4b-y)	.
.	.	.	.	.	.	4r	.
2BB-y	.	2F	.	2d 2A-	.	2r	.
!!LO:LB
=101	=101	=101	=101	=101	=101	=101	=101
2EE-y	.	(2E-y	.	(2e- 2G	.	(2e-y	.
2e-y	.	2e-y)	.	2ee-y)	.	2ee-y)	.
=102	=102	=102	=102	=102	=102	=102	=102
(2.An	.	(2.An	.	(2.an	.	(2.an	.
4B-y)	.	4B-y)	.	4b-y)	.	4b-y)	.
=103	=103	=103	=103	=103	=103	=103	=103
(4Bn	.	(4Bn	.	(4bn	.	(4bn	.
4c	.	4c	.	4cc	.	4cc	.
4En	.	4En	.	4en	.	4en	.
4F)	.	4F)	.	4f)	.	4f)	.
=104	=104	=104	=104	=104	=104	=104	=104
(2A-	.	(2A-	.	(2a-	.	(2a-	.
4G)	.	4G)	.	4g)	.	4g)	.
4r	.	4r	.	4r	.	4r	.
=105	=105	=105	=105	=105	=105	=105	=105
4r	.	4r	.	(32cL	.	(2.f	.
.	.	.	.	32d	.	.	.
.	.	.	.	8.e-J)	.	.	.
(4C	.	(4A-y	.	8e-yL	.	.	.
.	.	.	.	8e-yJ	.	.	.
2AA-y)	.	4c	.	2e-y	.	.	.
.	.	4F)	.	.	.	16b-yL	.
.	.	.	.	.	.	16a-y	.
.	.	.	.	.	.	16g	.
.	.	.	.	.	.	16a-yJ)	.
=106	=106	=106	=106	=106	=106	=106	=106
4AA-y]	.	4r	.	(32cL	.	(2.f	.
.	.	.	.	32d	.	.	.
.	.	.	.	8.e-yJ)	.	.	.
(4C	.	(4A-y	.	8e-y'L	.	.	.
.	.	.	.	8e-y'J	.	.	.
2AA-y)	.	4c	.	[2e-y	.	.	.
.	.	4F)	.	.	.	16b-yL	.
.	.	.	.	.	.	16a-y	.
.	.	.	.	.	.	16g	.
.	.	.	.	.	.	16a-yJ)	.
!!LO:LB
=107	=107	=107	=107	=107	=107	=107	=107
4AA-y]	.	4r	.	(2.e-y_	.	(4f	.
(4A-y	.	(4f	.	.	.	4cc	.
4B-y)	.	4g	.	.	.	4b-y	.
4BB-y	.	4f)	.	4d)	.	4a-y)	.
=108	=108	=108	=108	=108	=108	=108	=108
4E-y	.	(4e-y	.	8r	.	(4g	.
.	.	.	.	8ee-y'L	.	.	.
4r	.	4g)	.	8ee-y'	.	4b-y)	.
.	.	.	.	8ee-y'J	.	.	.
8r	.	2r	.	(8.ee-yL	.	2r	.
8e-y'L	.	.	.	.	.	.	.
.	.	.	.	32dd	.	.	.
.	.	.	.	32ccJ	.	.	.
8e-y'	.	.	.	8b-y)	.	.	.
8e-y'J	.	.	.	8r	.	.	.
=109	=109	=109	=109	=109	=109	=109	=109
(8.e-yL	.	8r	.	(8.ccL	.	1r	.
.	.	8e-y'L	.	.	.	.	.
32d	.	.	.	32b-y	.	.	.
32cJ	.	.	.	32a-yJ	.	.	.
8B-y)	.	8e-y'	.	8g)	.	.	.
8r	.	8e-y'J	.	8r	.	.	.
(8.cL	.	(8.e-yL	.	(8.a-yL	.	.	.
32B-y	.	32d	.	32g	.	.	.
32A-yJ	.	32cJ	.	32fJ	.	.	.
8G)	.	8B-y)	.	8en)	.	.	.
8r	.	8r	.	8r	.	.	.
=110	=110	=110	=110	=110	=110	=110	=110
4A-y	.	(32cL	.	(2.f	.	(2.ff	.
.	.	32d	.	.	.	.	.
.	.	8.e-yJ)	.	.	.	.	.
(4c	.	8e-y'L	.	.	.	.	.
.	.	8e-y'J	.	.	.	.	.
2A-y)	.	2e-y	.	.	.	.	.
.	.	.	.	16b-yL	.	16bb-yL	.
.	.	.	.	16a-y	.	16aa-y	.
.	.	.	.	16g	.	16gg	.
.	.	.	.	16a-yJ)	.	16aa-yJ)	.
=111	=111	=111	=111	=111	=111	=111	=111
4A-y]	.	(32cL	.	(2.f	.	(2.ff	.
.	.	32d	.	.	.	.	.
.	.	8.e-yJ)	.	.	.	.	.
(4c	.	8e-yL	.	.	.	.	.
.	.	8e-y'J	.	.	.	.	.
2A-y)	.	[2e-y	.	.	.	.	.
.	.	.	.	16b-yL	.	16bb-yL	.
.	.	.	.	16a-y	.	16aa-y	.
.	.	.	.	16g	.	16gg	.
.	.	.	.	16a-yJ)	.	16aa-yJ)	.
=112	=112	=112	=112	=112	=112	=112	=112
*	*	*	*	*^	*	*	*
4A-y]	cresc.	4e-y]	cresc.	4f	4ryy	cresc.	4ff	cresc.
(4A-y	.	(4f	.	(4cc	2e-y	.	(4ccc	.
4B-y)	.	4g)	.	4b-y)	.	.	4bb-y)	.
4BB-y	.	4f 4B-y	.	4d 4A-y	4ryy	.	4dd	.
*	*	*	*	*v	*v	*	*	*
=113	=113	=113	=113	=113	=113	=113	=113
8E-yL	.	8gL 8B-y	.	2e-y 2G	.	2ee-y	.
8D	.	8f	.	.	.	.	.
8E-y	.	8g	.	.	.	.	.
8FJ	.	8a-yJ	.	.	.	.	.
8GL	.	8b-yL	.	2ee-y	.	2eee-y	.
8F	.	8a-y	.	.	.	.	.
8G	.	8b-y	.	.	.	.	.
8E-yJ	.	8gJ	.	.	.	.	.
=114	=114	=114	=114	=114	=114	=114	=114
8FL	.	8cL	.	(2.an	.	(2.aan	.
8G-	.	8e-y	.	.	.	.	.
8F	.	8f	.	.	.	.	.
8E-yJ	.	8g-J	.	.	.	.	.
8DL	.	8fL	.	.	.	.	.
8C	.	8e-y	.	.	.	.	.
8D	.	8f	.	4b-y)	.	4bb-y)	.
8BB-yJ	.	8dJ	.	.	.	.	.
=115	=115	=115	=115	=115	=115	=115	=115
8GnL	.	8dL	.	(4bn	.	(4bbn	.
8F	.	8a	.	.	.	.	.
8E-y	.	8gn	.	4cc	.	4ccc	.
8DJ	.	8fJ	.	.	.	.	.
8CL	.	8gL	.	4en	.	4een	.
8BB-y	.	8d-	.	.	.	.	.
8AA-y	.	8c	.	4f)	.	4ff)	.
8GGJ	.	8B-yJ	.	.	.	.	.
=116	=116	=116	=116	=116	=116	=116	=116
8FFL	.	8cL	.	(2a-	.	(2aa-	.
8GG	.	8B-y	.	.	.	.	.
8AA-y	.	8c	.	.	.	.	.
8BB-yJ	.	8dnJ	.	.	.	.	.
4EE-y	.	8e-yL	.	8gL)	.	4gg)	.
.	.	(8e-y	.	(8g	.	.	.
4r	.	8f	.	8a-y	.	4r	.
.	.	8gJ)	.	8b-yJ)	.	.	.
=117	=117	=117	=117	=117	=117	=117	=117
8r	.	(4.a-y	.	(1cc	.	4r	.
(8A-yL	.	.	.	.	.	.	.
8F	.	.	.	.	.	8r	.
8E-yJ)	.	8g	.	.	.	(8ccc'	.
(4D	.	4f)	.	.	.	8bb-y'L	.
.	.	.	.	.	.	8aa-y'	.
4F)	.	[4a-y	.	.	.	8gg'	.
.	.	.	.	.	.	8ff'J)	.
!!LO:LB
=118	=118	=118	=118	=118	=118	=118	=118
8r	.	4a-y]	.	1b-y	.	(4ff	.
(8GL	.	.	.	.	.	.	.
8E-y	.	(8gL	.	.	.	8bb-yL)	.
8DJ)	.	8fJ	.	.	.	(8bb-y'J	.
(4C	.	4e-y	.	.	.	8aa-y'L	.
.	.	.	.	.	.	8gg'	.
4E-y)	.	4g)	.	.	.	8ff'	.
.	.	.	.	.	.	8ee-y'J)	.
=119	=119	=119	=119	=119	=119	=119	=119
8r	.	(4g_	.	1a-y)	.	(4ee-y	.
(8FL	.	.	.	.	.	.	.
8D	.	8fL	.	.	.	8aa-yL)	.
8CJ)	.	8e-yJ)	.	.	.	(8aa-y'J	.
2BB-y	.	4d	.	.	.	8gg'L	.
.	.	.	.	.	.	8ff'	.
.	.	(8e-yL	.	.	.	8ee-y'	.
.	.	8fJ)	.	.	.	8dd'J)	.
=120	=120	=120	=120	=120	=120	=120	=120
2C	.	4e-y	.	4g	.	(8ffL	.
.	.	.	.	.	.	8ee-y)	.
.	.	8r	.	8r	.	8dd'	.
.	.	8e-y	.	8g	.	8cc'J	.
2F	.	(8e-yL	.	(8gL	.	(8ccLT	.
.	.	8d)	.	8f)	.	8b-y)	.
.	.	(8d	.	(8f	.	(8b-yT	.
.	.	8cJ)	.	8e-yJ)	.	8anJ)	.
=121	=121	=121	=121	=121	=121	=121	=121
8BB-yL	.	8B-yL	.	4d	.	4b-y	.
8BB-y	.	8d	.	.	.	.	.
8BB-y	.	8d	.	8r	.	4r	.
8BB-yJ	.	8dJ	.	(8ff'	.	.	.
8BB-yL	.	8dL	.	8ee-y'L	.	2r	.
8BB-y	.	8d	.	8dd'	.	.	.
8BB-y	.	8d	.	8cc'	.	.	.
8BB-yJ	.	8dJ	.	8b-y'J)	.	.	.
=122	=122	=122	=122	=122	=122	=122	=122
8BB-yL	.	4e-y	.	(16anL	.	4r	.
.	.	.	.	16b-y	.	.	.
8BB-y	.	.	.	16cc	.	.	.
.	.	.	.	16b-yJ	.	.	.
8BB-y	.	(8.cL	.	16aL	.	8r	.
.	.	.	.	16b-y	.	.	.
8BB-yJ	.	.	.	16cc	.	(8ccc'	.
.	.	16AnJ)	.	16ddJ)	.	.	.
8BB-yL	.	(4F	.	[2ee-y	.	8bb-y'L	.
8BB-y	.	.	.	.	.	8aan'	.
8BB-y	.	4A)	.	.	.	8gg'	.
8BB-yJ	.	.	.	.	.	8ff'J)	.
!!LO:LB
=123	=123	=123	=123	=123	=123	=123	=123
8BB-yL	.	4.A-	.	4ee-y]	.	(16ffL	.
.	.	.	.	.	.	16gg	.
8BB-y	.	.	.	.	.	16ff	.
.	.	.	.	.	.	16eenJ	.
8BB-y	.	.	.	(16ddL	.	16ffL	.
.	.	.	.	16ee-y	.	16gg	.
8BB-yJ	.	(8a-y'	.	16dd	.	16ff	.
.	.	.	.	16ee-yJ)	.	16ggJ)	.
8BB-yL	.	8g'L	.	2ff	.	[2aa-	.
8BB-y	.	8f'	.	.	.	.	.
8BB-y	.	8e-y'	.	.	.	.	.
8BB-yJ	.	8d'J)	.	.	.	.	.
=124	=124	=124	=124	=124	=124	=124	=124
4.E-y	.	(16d-L	.	(4.b-y	.	(4aa-y_	.
.	.	16e-y	.	.	.	.	.
.	.	16d-y	.	.	.	.	.
.	.	16cJ	.	.	.	.	.
.	.	16d-yL	.	.	.	8ggL)	.
.	.	16B-y	.	.	.	.	.
(8B-y'	.	16c	.	8g)	.	8bb-yJ	.
.	.	16d-yJ)	.	.	.	.	.
8A-y'L	.	[2e-y	.	[2b-y	.	[2dd-	.
8G'	.	.	.	.	.	.	.
8F'	.	.	.	.	.	.	.
8E-y'J)	.	.	.	.	.	.	.
=125	=125	=125	=125	=125	=125	=125	=125
(4E-y	.	4e-y_	.	(4b-y_	.	(4dd-y_	.
8A-yL)	.	8e-y]	.	8a-y)	.	8cc)	.
(8G'J	.	8r	.	8r	.	8r	.
8F'L	.	8r	.	8r	.	8r	.
8En'	.	(8c'L	.	(8g'L	.	(8b-y'L	.
8D'	.	8c'	.	8g'	.	8b-y'	.
8C'J)	.	8c'J)	.	8g'J)	.	8b-y'J)	.
=126	=126	=126	=126	=126	=126	=126	=126
(4C	.	[4c	.	(4g	.	(4b-y	.
8FL)	.	8c]	.	8f)	.	8an)	.
(8F'J	.	8r	.	8r	.	8r	.
8E'L	.	8r	.	8r	.	8r	.
8D'	.	(8B-y'L	.	(8f'L	.	(8a-'L	.
8C'	.	8B-y'	.	8f'	.	8a-y'	.
8BB-y'J)	.	8B-y'J)	.	8f'J)	.	8a-y'J)	.
!!LO:LB
=127	=127	=127	=127	=127	=127	=127	=127
4E-y	.	[1B-y	.	(16e-yL	.	(8.gL	.
.	.	.	.	16g	.	.	.
.	.	.	.	16b-y	.	.	.
.	.	.	.	16gJ	.	16b-yJ	.
4r	.	.	.	8ee-yL)	.	8g)	.
.	.	.	.	(8ff'J	.	8r	.
(2A-y	.	.	.	8ee-y'L	.	8r	.
.	.	.	.	8dd'	.	(8f'L	.
.	.	.	.	8cc'	.	8e-y'	.
.	.	.	.	8b-y'J)	.	8d'J)	.
=128	=128	=128	=128	=128	=128	=128	=128
2G	.	4B-y]	.	(4b-y	.	(16e-yL	.
.	.	.	.	.	.	16f	.
.	.	.	.	.	.	16g	.
.	.	.	.	.	.	16e-yJ)	.
.	.	4r	.	8ee-yL)	.	8b-y'L	.
.	.	.	.	(8ff'J	.	8b-y'J	.
2A-y	.	8r	.	8ee-y'L	.	[2b-y	.
.	.	(8f'L	.	8dd'	.	.	.
.	.	8e-y'	.	8cc'	.	.	.
.	.	8d'J)	.	8b-y'J)	.	.	.
=129	=129	=129	=129	=129	=129	=129	=129
2G	.	(16e-yL	.	(4b-y	.	4b-y]	.
.	.	16f	.	.	.	.	.
.	.	16g	.	.	.	.	.
.	.	16e-yJ)	.	.	.	.	.
.	.	8b-y'L	.	8ee-y)	.	8r	.
.	.	8b-y'J	.	8r	.	(8fff'	.
2A-y)	.	[2b-y	.	8r	.	8eee-y'L	.
.	.	.	.	(8ff'L	.	8ddd'	.
.	.	.	.	8ee-y'	.	8ccc'	.
.	.	.	.	8dd'J)	.	8bb-y'J)	.
=130	=130	=130	=130	=130	=130	=130	=130
4G	.	4b-y]	.	4ee-y	.	[1eee-y	.
4r	.	4r	.	8r	.	.	.
.	.	.	.	(8bb-y'	.	.	.
2r	.	2r	.	8aa-y'L	.	.	.
.	.	.	.	8gg'	.	.	.
.	.	.	.	8ff'	.	.	.
.	.	.	.	8ee-y'J)	.	.	.
=131	=131	=131	=131	=131	=131	=131	=131
1r	.	4r	cre	(1dd-	cre	1eee-y_	cre
.	.	8r	.	.	.	.	.
.	.	(8b-y'	.	.	.	.	.
.	.	8a-y'L	.	.	.	.	.
.	.	8g'	.	.	.	.	.
.	.	8f'	.	.	.	.	.
.	.	8e-y'J)	.	.	.	.	.
=132	=132	=132	=132	=132	=132	=132	=132
4r	cre	1a-y	scen	1cc)	scen	1eee-y_	scen
8r	.	.	.	.	.	.	.
(8e-y	.	.	.	.	.	.	.
8d-L	.	.	.	.	.	.	.
8c	.	.	.	.	.	.	.
8B-y	.	.	.	.	.	.	.
8A-yJ)	.	.	.	.	.	.	.
=133	=133	=133	=133	=133	=133	=133	=133
1c-	.	(4.g-	do	[2an	do	4.eee-y]	do
.	.	8f	.	.	.	(8ddd'	.
.	.	8g-yL	.	(4.a_	.	8eee-y'L	.
.	.	8d	.	.	.	8fff'	.
.	.	8e-y	.	.	.	8ggg-'	.
.	.	8fJ)	.	8ee-y)	.	8aan'J)	.
=134	=134	=134	=134	=134	=134	=134	=134
8B-yL	.	8gnL	.	8ee-yL	.	4bb-y	.
8B-y	.	8g	.	8ee-y	.	.	.
8B-y	.	8g	.	8ee-y	.	2bbb-y	.
8B-yJ	.	8gJ	.	8ee-yJ	.	.	.
8B-yL	.	8gL	.	8ee-yL	.	.	.
8B-y	.	8g	.	8ee-y	.	.	.
.	.	.	.	.	.	(<16qaaa	.
8B-y	.	8g	.	8ee-y	.	(8gggnL)	.
8B-yJ	.	8gJ	.	8ee-yJ	.	16fff	.
.	.	.	.	.	.	16eee-yJ)	.
=135	=135	=135	=135	=135	=135	=135	=135
8B-yL	.	8a-yL	.	8ddL	.	1fffT	.
8B-y	.	8a-y	.	8dd	.	.	.
8B-y	.	8a-y	.	8dd	.	.	.
8B-yJ	.	8a-yJ	.	8ddJ	.	.	.
8B-yL	.	8a-yL	.	8ddL	.	.	.
8B-y	.	8a-y	.	8dd	.	.	.
8B-y	.	8a-y	.	8dd	.	.	.
8B-yJ	.	8a-yJ	.	8ddJ	.	.	.
.	.	.	.	.	.	(<32qeee-yL	.
.	.	.	.	.	.	32qfffJ)	.
=136	=136	=136	=136	=136	=136	=136	=136
4E-y	.	4g	.	4ee-y	.	4eee-y	.
4r	.	4r	.	4r	.	4r	.
2r	.	2r	.	2r	.	(8ee-yL	.
.	.	.	.	.	.	24ff	.
.	.	.	.	.	.	24ee-y	.
.	.	.	.	.	.	24ddJ	.
.	.	.	.	.	.	8ee-yL)	.
.	.	.	.	.	.	8ffJ	.
=137	=137	=137	=137	=137	=137	=137	=137
2r	.	2r	.	2r	.	(4gg'	.
.	.	.	.	.	.	4gg'	.
(2G	.	(2f	.	(2bn	.	4gg'	.
.	.	.	.	.	.	4gg')	.
!!LO:LB
=138	=138	=138	=138	=138	=138	=138	=138
4C)	.	4e-y)	.	4cc)	.	(>16ggL	.
.	.	.	.	.	.	16bbn	.
.	.	.	.	.	.	16ccc	.
.	.	.	.	.	.	16aa-yJ)	.
4r	.	4r	.	4r	.	4gg	.
2r	.	2r	.	2r	.	(>4ee-y	.
.	.	.	.	.	.	(<32qffL	.
.	.	.	.	.	.	32qee-y	.
.	.	.	.	.	.	32qdd	.
.	.	.	.	.	.	32qee-yJ)	.
.	.	.	.	.	.	8ffL)	.
.	.	.	.	.	.	8ggJ	.
=139	=139	=139	=139	=139	=139	=139	=139
4..D	.	4..d	.	2b-	.	4..ff	.
16E-y	.	16e-y	.	.	.	16gg	.
4F	.	4f	.	8.ddL	.	8.ffL	.
.	.	.	.	16cc	.	16ee-y	.
4F	.	4f	.	8.b-y	.	8.dd	.
.	.	.	.	16anJ	.	16ccJ	.
=140	=140	=140	=140	=140	=140	=140	=140
4BB-y	.	4f	.	(8aL	.	(8ccL	.
.	.	.	.	8b-yJ)	.	8ddJ)	.
4r	.	4r	.	4d	.	4b-y	.
2r	.	2r	.	2r	.	8.b-yL	.
.	.	.	.	.	.	16cc	.
.	.	.	.	.	.	8.dd	.
.	.	.	.	.	.	16eenJ	.
=141	=141	=141	=141	=141	=141	=141	=141
4r	.	[1cc	.	(8a-L	.	4ff	.
.	.	.	.	8f	.	.	.
(4F	.	.	.	8a-y	.	2ff	.
.	.	.	.	8fJ	.	.	.
4A-	.	.	.	8a-yL	.	.	.
.	.	.	.	8f	.	.	.
4c)	.	.	.	8b-y	.	(8.ggL	.
.	.	.	.	8gJ)	.	.	.
.	.	.	.	.	.	16eenJ)	.
=142	=142	=142	=142	=142	=142	=142	=142
(4.f	.	4.cc]	.	(8a-yL	.	(4ff	.
.	.	.	.	8cc)	.	.	.
.	.	.	.	8ff	.	2aa-y)	.
8e-y)	.	(8cc-	.	8ffJ	.	.	.
4d	.	4b-y)	.	4ff	.	.	.
4r	.	4r	.	4r	.	(12aa-yL	.
.	.	.	.	.	.	12ccc	.
.	.	.	.	.	.	12aa-yJ)	.
!!LO:LB
=143	=143	=143	=143	=143	=143	=143	=143
4e-y	.	4b-y	.	4ee-y	.	4gg	.
4r	.	4r	.	4r	.	(12ggL	.
.	.	.	.	.	.	12bb-y	.
.	.	.	.	.	.	12ggJ)	.
4B-y	.	4a-y	.	4dd	.	4ff	.
4r	.	4r	.	4r	.	(12ffL	.
.	.	.	.	.	.	12aa-y	.
.	.	.	.	.	.	12ffJ)	.
=144	=144	=144	=144	=144	=144	=144	=144
4E-y	.	4g	.	4ee-y	.	(4ee-y	.
4r	.	4r	.	4r	.	8eee-y)	.
.	.	.	.	.	.	8r	.
2r	.	2r	.	(8e-yL	.	2r	.
.	.	.	.	24f	.	.	.
.	.	.	.	24e-y	.	.	.
.	.	.	.	24dJ	.	.	.
.	.	.	.	8e-yL)	.	.	.
.	.	.	.	8fJ	.	.	.
=145	=145	=145	=145	=145	=145	=145	=145
2r	.	2r	.	(4g'	.	2r	.
.	.	.	.	4g'	.	.	.
(2GG	.	(2F	.	4g'	.	(2Bn	.
.	.	.	.	4g')	.	.	.
=146	=146	=146	=146	=146	=146	=146	=146
4CC)	.	4E-y)	.	(16gL	.	4c)	.
.	.	.	.	16bn	.	.	.
.	.	.	.	16cc	.	.	.
.	.	.	.	16a-yJ)	.	.	.
4r	.	4r	.	4g	.	4r	.
2r	.	2r	.	(4e-y	.	2r	.
.	.	.	.	(<32qfL	.	.	.
.	.	.	.	32qe-y	.	.	.
.	.	.	.	32qd	.	.	.
.	.	.	.	32qe-yJ)	.	.	.
.	.	.	.	8fL)	.	.	.
.	.	.	.	8gJ	.	.	.
=147	=147	=147	=147	=147	=147	=147	=147
4..DD	.	4..D	.	4..f	.	2B-	.
16EE-y	.	16E-y	.	16g	.	.	.
4FF	.	4F	.	8.fL	.	8.dL	.
.	.	.	.	16e-y	.	16c	.
4FF	.	4F	.	8.d	.	8.B-y	.
.	.	.	.	16cJ	.	16AnJ	.
=148	=148	=148	=148	=148	=148	=148	=148
4BB-y	.	(8E-yL	.	(8cL	.	(8AL	.
.	.	8DJ)	.	8dJ)	.	8B-yJ)	.
4r	.	4D	.	4B-y	.	4r	.
2r	.	2r	.	8.B-yL	.	2r	.
.	.	.	.	16c	.	.	.
.	.	.	.	8.d	.	.	.
.	.	.	.	16enJ	.	.	.
!!LO:LB
=149	=149	=149	=149	=149	=149	=149	=149
1r	.	8.FL	.	4f	.	1r	.
.	.	16G	.	.	.	.	.
.	.	8.A-	.	2f	.	.	.
.	.	16B-yJ	.	.	.	.	.
.	.	(4.c	.	.	.	.	.
.	.	.	.	(8.gL	.	.	.
.	.	8B-y)	.	.	.	.	.
.	.	.	.	16enJ)	.	.	.
=150	=150	=150	=150	=150	=150	=150	=150
1r	.	8.A-yL	.	(4f	.	1r	.
.	.	16G	.	.	.	.	.
.	.	8.F	.	2a-y)	.	.	.
.	.	16E-yJ	.	.	.	.	.
.	.	4D	.	.	.	.	.
.	.	4r	.	(12bnL	.	.	.
.	.	.	.	12cc	.	.	.
.	.	.	.	12a-yJ)	.	.	.
=151	=151	=151	=151	=151	=151	=151	=151
1r	.	4E-y	.	4g	.	1r	.
.	.	4r	.	(12anL	.	.	.
.	.	.	.	12b	.	.	.
.	.	.	.	12gJ)	.	.	.
.	.	4B-y	.	4f	.	.	.
.	.	4r	.	(12gL	.	.	.
.	.	.	.	12a-	.	.	.
.	.	.	.	12fJ)	.	.	.
=152	=152	=152	=152	=152	=152	=152	=152
8E-yL	.	(2e-y	.	4e-y	.	1r	.
8E-y	.	.	.	.	.	.	.
8E-y	.	.	.	4r	.	.	.
8E-yJ	.	.	.	.	.	.	.
8E-yL	.	2d	.	2r	.	.	.
8E-y	.	.	.	.	.	.	.
8E-y	.	.	.	.	.	.	.
8E-yJ	.	.	.	.	.	.	.
=153	=153	=153	=153	=153	=153	=153	=153
8E-yL	.	2c	.	1r	.	(2a-y	.
8E-y	.	.	.	.	.	.	.
8E-y	.	.	.	.	.	.	.
8E-yJ	.	.	.	.	.	.	.
8E-yL	.	2B-y)	.	.	.	2g)	.
8E-y	.	.	.	.	.	.	.
8E-y	.	.	.	.	.	.	.
8E-yJ	.	.	.	.	.	.	.
=154	=154	=154	=154	=154	=154	=154	=154
8E-yL	.	(2An	.	(2c	.	[2f	.
8E-y	.	.	.	.	.	.	.
8E-y	.	.	.	.	.	.	.
8E-yJ	.	.	.	.	.	.	.
8E-yL	.	2A-)	.	2d)	.	(8fL_	.
8E-y	.	.	.	.	.	16g	.
.	.	.	.	.	.	16a-yJ	.
8E-y	.	.	.	.	.	8b-yL)	.
8E-yJ	.	.	.	.	.	8b-yJ	.
=155	=155	=155	=155	=155	=155	=155	=155
8E-yL	.	4G	.	(2e-y	.	4e-y	.
8E-y	.	.	.	.	.	.	.
8E-y	.	4r	.	.	.	4r	.
8E-yJ	.	.	.	.	.	.	.
8E-yL	.	2r	.	2d-	.	2r	.
8E-y	.	.	.	.	.	.	.
8E-y	.	.	.	.	.	.	.
8E-yJ	.	.	.	.	.	.	.
=156	=156	=156	=156	=156	=156	=156	=156
8E-yL	.	(2a-y	.	2c-	.	1r	.
8E-y	.	.	.	.	.	.	.
8E-y	.	.	.	.	.	.	.
8E-yJ	.	.	.	.	.	.	.
8E-yL	.	2g-)	.	2B-y)	.	.	.
8E-y	.	.	.	.	.	.	.
8E-y	.	.	.	.	.	.	.
8E-yJ	.	.	.	.	.	.	.
=157	=157	=157	=157	=157	=157	=157	=157
8E-yL	.	1f-	.	(2A-	.	(2cc-	.
8E-y	.	.	.	.	.	.	.
8E-y	.	.	.	.	.	.	.
8E-yJ	.	.	.	.	.	.	.
8D-L	.	.	.	2G)	.	2b-y)	.
8D-y	.	.	.	.	.	.	.
8D-y	.	.	.	.	.	.	.
8D-yJ	.	.	.	.	.	.	.
=158	=158	=158	=158	=158	=158	=158	=158
8CL	.	(2e-y	.	2A-y	.	(2ee-y	.
8C	.	.	.	.	.	.	.
8C	.	.	.	.	.	.	.
8CJ	.	.	.	.	.	.	.
8C-L	.	2an)	.	(2ee-y	.	2gg-)	.
8C-y	.	.	.	.	.	.	.
8C-y	.	.	.	.	.	.	.
8C-yJ	.	.	.	.	.	.	.
=159	=159	=159	=159	=159	=159	=159	=159
4BB-y	.	4ee-y	.	4ggn)	.	4bb-y	.
4r	.	4r	.	4r	.	4r	.
2BB-y	.	(2F	.	(2A-y	.	((2d	.
=160	=160	=160	=160	=160	=160	=160	=160
4EE-y	.	4E-y)	.	4G)	.	8e-yL))	.
.	.	.	.	.	.	16f	.
.	.	.	.	.	.	16gJ	.
4B-y	.	4r	.	4r	.	16a-yL	.
.	.	.	.	.	.	16b-y	.
.	.	.	.	.	.	16cc	.
.	.	.	.	.	.	16ddJ	.
4G	.	2r	.	2r	.	16ee-yL	.
.	.	.	.	.	.	16ff	.
.	.	.	.	.	.	16gg	.
.	.	.	.	.	.	16aa-yJ	.
4E-y	.	.	.	.	.	8bb-yL	.
.	.	.	.	.	.	8bb-yJ	.
!!LO:LB
=161	=161	=161	=161	=161	=161	=161	=161
4A-y	.	(16B-yL	.	(16dL	.	(8bb-yL	.
.	.	16c	.	16e-y	.	.	.
.	.	16d	.	16f	.	8ffJ)	.
.	.	16c#J	.	16enJ	.	.	.
8.FL	.	16dL	.	16fL	.	4.aa-y	.
.	.	16en	.	16g	.	.	.
.	.	16f	.	16a-y	.	.	.
16DJ	.	16eJ)	.	16gJ)	.	.	.
4BB-y	.	8f	.	8a-y	.	.	.
.	.	4f	.	4a-y	.	(16bb-yL	.
.	.	.	.	.	.	16aa-yJ)	.
4B-y	.	.	.	.	.	(16ggL	.
.	.	.	.	.	.	16ff)	.
.	.	8f	.	8a-y	.	(16ee-y	.
.	.	.	.	.	.	16ddJ)	.
=162	=162	=162	=162	=162	=162	=162	=162
4E-y	.	4e-	.	(16gL	.	16ee-yL	.
.	.	.	.	16e-	.	16e-y	.
.	.	.	.	16d	.	16f	.
.	.	.	.	16e-yJ	.	16gJ	.
4BB-y	.	[4B-y	.	16fL	.	16a-yL	.
.	.	.	.	16g	.	16b-y	.
.	.	.	.	16a-y	.	16cc	.
.	.	.	.	16fJ)	.	16ddJ	.
4GG	.	(16B-yL_	.	4b-y	.	16ee-yL	.
.	.	16d	.	.	.	16ff	.
.	.	16e-y	.	.	.	16gg	.
.	.	16fJ	.	.	.	16aa-yJ	.
4EE-y	.	16gL	.	4r	.	8bb-yL	.
.	.	16f	.	.	.	.	.
.	.	16g	.	.	.	8bb-yJ	.
.	.	16e-yJ)	.	.	.	.	.
=163	=163	=163	=163	=163	=163	=163	=163
4A-y	.	(16dL	.	(16B-yL	.	(8bb-yL	.
.	.	16e-y	.	16c	.	.	.
.	.	16f	.	16d	.	8ffJ)	.
.	.	16enJ	.	16c#J	.	.	.
8.FL	.	16fL	.	16dL	.	4.aa-y	.
.	.	16g	.	16en	.	.	.
.	.	16a-y	.	16f	.	.	.
16DJ	.	16gJ)	.	16eJ)	.	.	.
4BB-y	.	8a-y	.	8f	.	.	.
.	.	4a-y	.	4f	.	(16bb-yL	.
.	.	.	.	.	.	16aa-yJ)	.
4B-y	.	.	.	.	.	(16ggL	.
.	.	.	.	.	.	16ff)	.
.	.	8a-y	.	8f	.	(16ee-y	.
.	.	.	.	.	.	16ddJ)	.
=164	=164	=164	=164	=164	=164	=164	=164
4E-y	.	4g	.	4e-	.	4ee-y	.
4EE-y	.	8.B-yL	.	8.e-yL 8.G	.	8.e-yL 8.G	.
.	.	16B-yJ	.	16e-yJ 16G	.	16e-yJ 16G	.
4EE-y	.	4B-y	.	4e-y 4G	.	4e-y 4G	.
4r	.	4r	.	4r	.	4r	.
=:|!	=:|!	=:|!	=:|!	=:|!	=:|!	=:|!	=:|!
*-	*-	*-	*-	*-	*-	*-	*-
!!!RDF**kern: > = above
!!!RDF**kern: < = below
